svg/已驳回.svg

<svg width="180" height="180" viewBox="0 0 180 180" fill="none" xmlns="http://www.w3.org/2000/svg"><path d="M90 163.5C131.421 163.5 165 129.921 165 88.5C165 47.0786 131.421 13.5 90 13.5C48.5786 13.5 15 47.0786 15 88.5C15 129.921 48.5786 163.5 90 163.5Z" fill="#F5F5F4"/><path d="M92.3057 51.5C88.955 56.5055 87 62.5242 87 69C87 86.397 101.103 100.5 118.5 100.5C125.864 100.5 132.636 97.972 138 93.7383V161.5C138 164.261 135.761 166.5 133 166.5H47C44.2386 166.5 42 164.261 42 161.5V56.5C42 53.7386 44.2386 51.5 47 51.5H92.3057Z" fill="white"/><circle cx="119" cy="68.5" r="24.5" stroke="#EAEAEA" stroke-width="5"/><mask id="path-5-inside-1_326_19041" fill="white"><path d="M125.985 79.7384C127.079 80.2029 128.362 79.6935 128.64 78.5376C129.098 76.6327 129.121 74.6394 128.697 72.7079C128.117 70.0719 126.731 67.6816 124.732 65.8688C122.732 64.056 120.218 62.9105 117.538 62.5913C115.574 62.3573 113.592 62.5755 111.741 63.2173C110.618 63.6067 110.237 64.9333 110.806 65.977V65.977C111.375 67.0207 112.683 67.3754 113.834 67.0793C114.871 66.8127 115.953 66.7382 117.028 66.8662C118.821 67.0797 120.503 67.8459 121.84 69.0584C123.177 70.2708 124.104 71.8695 124.492 73.6326C124.724 74.6899 124.756 75.7748 124.592 76.8324C124.41 78.0072 124.891 79.2739 125.985 79.7384V79.7384Z"/></mask><path d="M125.985 79.7384C127.079 80.2029 128.362 79.6935 128.64 78.5376C129.098 76.6327 129.121 74.6394 128.697 72.7079C128.117 70.0719 126.731 67.6816 124.732 65.8688C122.732 64.056 120.218 62.9105 117.538 62.5913C115.574 62.3573 113.592 62.5755 111.741 63.2173C110.618 63.6067 110.237 64.9333 110.806 65.977V65.977C111.375 67.0207 112.683 67.3754 113.834 67.0793C114.871 66.8127 115.953 66.7382 117.028 66.8662C118.821 67.0797 120.503 67.8459 121.84 69.0584C123.177 70.2708 124.104 71.8695 124.492 73.6326C124.724 74.6899 124.756 75.7748 124.592 76.8324C124.41 78.0072 124.891 79.2739 125.985 79.7384V79.7384Z" stroke="#D9D9D9" stroke-width="12" mask="url(#path-5-inside-1_326_19041)"/><path d="M80 110.5H54C52.3431 110.5 51 109.157 51 107.5C51 105.843 52.3431 104.5 54 104.5H80C81.6569 104.5 83 105.843 83 107.5C83 109.157 81.6569 110.5 80 110.5Z" fill="#D6D3D1"/><path d="M106 136.5H54C52.3431 136.5 51 135.157 51 133.5C51 131.843 52.3431 130.5 54 130.5H106C107.657 130.5 109 131.843 109 133.5C109 135.157 107.657 136.5 106 136.5Z" fill="#D6D3D1"/><path d="M93.6 123.5H53.4C52.0745 123.5 51 122.157 51 120.5C51 118.843 52.0745 117.5 53.4 117.5H93.6C94.9255 117.5 96 118.843 96 120.5C96 122.157 94.9255 123.5 93.6 123.5Z" fill="#ECECEC"/><path d="M114.185 59.5L109.411 64.2736C109.02 64.6642 109.02 65.2973 109.411 65.6879L114.185 70.4615" stroke="#D9D9D9" stroke-width="4" stroke-linecap="round"/></svg>

<svg fill="none" viewBox="0 0 180 180"><path fill="#F5F5F4" d="M90 163.5c41.421 0 75-33.579 75-75s-33.579-75-75-75-75 33.579-75 75 33.579 75 75 75"/><path fill="white" d="M92.306 51.5A31.35 31.35 0 0 0 87 69c0 17.397 14.103 31.5 31.5 31.5a31.36 31.36 0 0 0 19.5-6.762V161.5a5 5 0 0 1-5 5H47a5 5 0 0 1-5-5v-105a5 5 0 0 1 5-5z"/><circle cx="119" cy="68.5" r="24.5" stroke="#EAEAEA" stroke-width="5"/><mask id="a" fill="white"><path d="M125.985 79.738c1.094.465 2.377-.044 2.655-1.2a13.006 13.006 0 0 0-11.102-15.946 13 13 0 0 0-5.797.625c-1.123.39-1.504 1.716-.935 2.76s1.877 1.398 3.028 1.102a8.694 8.694 0 0 1 10.758 9.753c-.182 1.175.299 2.442 1.393 2.906"/></mask><path stroke="#D9D9D9" stroke-width="12" d="M125.985 79.738c1.094.465 2.377-.044 2.655-1.2a13.006 13.006 0 0 0-11.102-15.946 13 13 0 0 0-5.797.625c-1.123.39-1.504 1.716-.935 2.76s1.877 1.398 3.028 1.102a8.694 8.694 0 0 1 10.758 9.753c-.182 1.175.299 2.442 1.393 2.906Z" mask="url(#a)"/><path fill="#D6D3D1" d="M80 110.5H54a3 3 0 1 1 0-6h26a3 3 0 1 1 0 6"/><path fill="#D6D3D1" d="M106 136.5H54a3 3 0 1 1 0-6h52a3 3 0 1 1 0 6"/><path fill="#ECECEC" d="M93.6 123.5H53.4c-1.325 0-2.4-1.343-2.4-3s1.075-3 2.4-3h40.2c1.326 0 2.4 1.343 2.4 3s-1.075 3-2.4 3"/><path stroke="#D9D9D9" stroke-linecap="round" stroke-width="4" d="m114.185 59.5-4.774 4.774a1 1 0 0 0 0 1.414l4.774 4.773"/></svg>
